local/share/icons/dracula-icons-main/scalable/apps/putty.svg

<?xml version="1.0" encoding="UTF-8"?>
<svg xmlns="http://www.w3.org/2000/svg" xmlns:xlink="http://www.w3.org/1999/xlink" width="64" height="64" viewBox="0 0 64 64">
<path fill-rule="nonzero" fill="rgb(89.411765%, 89.411765%, 89.411765%)" fill-opacity="1" d="M 32 5 C 46.910156 5 59 17.089844 59 32 C 59 46.910156 46.910156 59 32 59 C 17.089844 59 5 46.910156 5 32 C 5 17.089844 17.089844 5 32 5 Z M 32 5 "/>
<path fill-rule="nonzero" fill="rgb(75.294118%, 15.294118%, 29.411765%)" fill-opacity="1" d="M 17.363281 19.085938 C 17.019531 19.125 16.734375 19.441406 16.738281 19.785156 L 16.738281 32.476562 C 16.738281 32.847656 17.070312 33.175781 17.4375 33.175781 L 23.78125 33.175781 L 23.78125 35.523438 L 19.085938 35.523438 L 19.085938 37.871094 L 27.632812 37.871094 L 27.632812 33.210938 L 24.917969 30.828125 L 19.597656 30.828125 C 19.351562 30.828125 19.121094 30.597656 19.121094 30.351562 L 19.121094 21.914062 C 19.117188 21.691406 19.273438 21.476562 19.492188 21.4375 C 19.515625 21.433594 19.574219 21.433594 19.601562 21.4375 L 32.660156 21.4375 C 32.910156 21.4375 33.136719 21.671875 33.136719 21.914062 L 33.136719 25.289062 L 35.519531 25.289062 L 35.519531 19.785156 C 35.519531 19.417969 35.191406 19.085938 34.824219 19.085938 "/>
<path fill-rule="nonzero" fill="rgb(15.686275%, 21.568627%, 31.764706%)" fill-opacity="1" d="M 33.328125 26.128906 L 36.226562 28.476562 L 44.40625 28.476562 C 44.652344 28.476562 44.882812 28.707031 44.882812 28.953125 L 44.882812 37.390625 C 44.882812 37.640625 44.652344 37.867188 44.40625 37.867188 L 31.347656 37.867188 C 31.101562 37.867188 30.871094 37.640625 30.871094 37.390625 L 30.871094 36.070312 L 28.5 33.980469 L 28.5 39.519531 C 28.5 39.890625 28.816406 40.21875 29.195312 40.21875 L 35.542969 40.21875 L 35.542969 42.566406 L 30.847656 42.566406 L 30.847656 44.914062 L 44.933594 44.914062 L 44.933594 42.566406 L 40.238281 42.566406 L 40.238281 40.21875 L 46.570312 40.21875 C 46.941406 40.21875 47.28125 39.894531 47.28125 39.519531 L 47.28125 26.828125 C 47.28125 26.460938 46.953125 26.128906 46.570312 26.128906 "/>
<path fill-rule="evenodd" fill="rgb(91.764706%, 55.686275%, 0%)" fill-opacity="1" d="M 21.433594 26.128906 L 32 35.519531 L 32 29.652344 L 40.21875 33.171875 L 28.476562 23.78125 L 28.476562 28.183594 L 21.441406 26.128906 "/>
</svg>

<svg width="64" height="64" version="1.1" viewBox="0 0 64 64" xmlns="http://www.w3.org/2000/svg">
 <g transform="translate(1,1)"></g>
 <path d="m32 5c14.912 0 27 12.088 27 27s-12.088 27-27 27-27-12.088-27-27 12.088-27 27-27z" fill="#e4e4e4" stroke-width="1.1739"/>
 <path d="m17.362 19.087c-0.34396 0.03639-0.62804 0.35335-0.62335 0.6973v12.694c0 0.37096 0.32987 0.6973 0.6973 0.6973h6.3462v2.3478h-4.6957v2.3478h8.5473v-4.6593l-2.7153-2.3842h-5.319c-0.2477 0-0.47661-0.22891-0.47661-0.47661v-8.4381c-0.0047-0.2207 0.15144-0.43552 0.36744-0.47661 0.027-0.0047 0.08217-0.0047 0.11035 0h13.06c0.2477 0 0.47661 0.23361 0.47661 0.47661v3.375h2.3842v-5.5033c0-0.36743-0.32987-0.6973-0.6973-0.6973" fill="#c0274b"/>
 <path d="m33.327 26.13 2.8984 2.3478h8.181c0.2477 0 0.47661 0.22891 0.47661 0.47661v8.4381c0 0.2477-0.22891 0.47661-0.47661 0.47661h-13.06c-0.243 0-0.47661-0.22891-0.47661-0.47661v-1.3207l-2.3713-2.0907v5.5397c0 0.37096 0.31696 0.6973 0.6973 0.6973h6.3462v2.3478h-4.6957v2.3478h14.087v-2.3478h-4.6957v-2.3478h6.3333c0.37096 0 0.71022-0.32517 0.71022-0.6973v-12.694c0-0.36743-0.32987-0.6973-0.71022-0.6973" fill="#283751"/>
 <path d="m21.435 26.13 10.565 9.3913v-5.8696l8.2174 3.5217-11.739-9.3913v4.4022l-7.0388-2.0543" fill="#ea8e00" fill-rule="evenodd"/>
</svg>
